assets/images/mono-top-svg.svg

<svg width="78" height="147" viewBox="0 0 78 147" fill="none" xmlns="http://www.w3.org/2000/svg">
<path fill-rule="evenodd" clip-rule="evenodd" d="M25.6371 16V5.0909H28.6626V16H25.6371ZM27.157 3.68465C26.7071 3.68465 26.3213 3.5355 25.9993 3.2372C25.6821 2.93417 25.5234 2.57196 25.5234 2.15055C25.5234 1.73389 25.6821 1.37641 25.9993 1.07811C26.3213 0.775081 26.7071 0.623566 27.157 0.623566C27.6068 0.623566 27.9903 0.775081 28.3075 1.07811C28.6295 1.37641 28.7905 1.73389 28.7905 2.15055C28.7905 2.57196 28.6295 2.93417 28.3075 3.2372C27.9903 3.5355 27.6068 3.68465 27.157 3.68465ZM36.0153 16.2131C34.8978 16.2131 33.9367 15.9763 33.1317 15.5028C32.3316 15.0246 31.716 14.3617 31.2852 13.5142C30.859 12.6667 30.646 11.6913 30.646 10.5881C30.646 9.47063 30.8614 8.49052 31.2923 7.64771C31.7279 6.80018 32.3458 6.13966 33.146 5.66618C33.9461 5.18796 34.8978 4.94885 36.0011 4.94885C36.9528 4.94885 37.7861 5.12167 38.5011 5.46732C39.216 5.81296 39.7818 6.29828 40.1985 6.92328C40.6152 7.54828 40.8448 8.28218 40.8874 9.12499H38.0323C37.9518 8.58048 37.7388 8.14251 37.3931 7.81107C37.0522 7.47489 36.6048 7.3068 36.0508 7.3068C35.582 7.3068 35.1725 7.43465 34.8221 7.69033C34.4764 7.94127 34.2066 8.30823 34.0124 8.79118C33.8183 9.27413 33.7212 9.85889 33.7212 10.5454C33.7212 11.2415 33.8159 11.8333 34.0053 12.321C34.1995 12.8087 34.4717 13.1804 34.8221 13.4361C35.1725 13.6917 35.582 13.8196 36.0508 13.8196C36.3964 13.8196 36.7066 13.7486 36.9812 13.6065C37.2605 13.4645 37.4902 13.2585 37.6701 12.9886C37.8548 12.714 37.9755 12.3849 38.0323 12.0014H40.8874C40.8401 12.8347 40.6128 13.5686 40.2056 14.2031C39.8032 14.8328 39.2468 15.3253 38.5366 15.6804C37.8264 16.0355 36.9859 16.2131 36.0153 16.2131ZM47.7962 16.2131C46.674 16.2131 45.7081 15.9858 44.8984 15.5312C44.0935 15.072 43.4732 14.4233 43.0376 13.5852C42.602 12.7424 42.3842 11.7457 42.3842 10.5952C42.3842 9.473 42.602 8.48815 43.0376 7.64061C43.4732 6.79307 44.0864 6.13256 44.8771 5.65908C45.6726 5.18559 46.6054 4.94885 47.6754 4.94885C48.3951 4.94885 49.0651 5.06485 49.6854 5.29686C50.3104 5.52413 50.8549 5.86741 51.3189 6.32669C51.7876 6.78597 52.1522 7.36362 52.4126 8.05965C52.6731 8.75093 52.8033 9.56059 52.8033 10.4886V11.3196H45.3743V11.3267C45.3743 11.8665 45.4737 12.3328 45.6726 12.7258C45.8762 13.1188 46.1626 13.4219 46.532 13.6349C46.9013 13.848 47.3393 13.9545 47.8459 13.9545C48.1821 13.9545 48.4898 13.9072 48.7692 13.8125C49.0485 13.7178 49.2876 13.5757 49.4865 13.3863C49.6854 13.197 49.8369 12.9649 49.9411 12.6903L52.7393 12.875C52.5973 13.5473 52.3061 14.1345 51.8658 14.6364C51.4302 15.1335 50.8667 15.5218 50.1754 15.8011C49.4889 16.0757 48.6958 16.2131 47.7962 16.2131ZM45.6797 8.37215C45.4962 8.69538 45.3954 9.05286 45.3771 9.44459H49.9553C49.9553 9.00898 49.8606 8.62309 49.6712 8.28692C49.4818 7.95074 49.219 7.68796 48.8828 7.49857C48.5514 7.30444 48.1655 7.20737 47.7251 7.20737C47.2659 7.20737 46.8587 7.31391 46.5036 7.52697C46.1532 7.73531 45.8786 8.01703 45.6797 8.37215ZM55.4704 50.3902C58.6315 50.3902 61.6265 49.8428 64.3037 48.8646V94.1707C64.3037 96.9321 62.0651 99.1707 59.3037 99.1707H43.6926V121.583C43.6926 124.023 41.7152 126 39.2759 126C36.8367 126 34.8593 124.023 34.8593 121.583V99.1707H16.3037C13.5423 99.1707 11.3037 96.9321 11.3037 94.1707V31C11.3037 28.2386 13.5423 26 16.3037 26H38.0994C36.0484 28.4641 34.8593 31.3935 34.8593 34.5366C34.8593 43.2923 44.0872 50.3902 55.4704 50.3902ZM0.723138 135.941C1.21947 136.732 1.96353 137.385 2.95534 137.9C3.81687 138.347 4.64462 138.576 5.43859 138.588C6.23255 138.6 6.95319 138.419 7.60049 138.046C8.25418 137.67 8.79397 137.124 9.21987 136.406L6.68572 135.091C6.45862 135.405 6.19987 135.641 5.90946 135.8C5.62544 135.957 5.32674 136.034 5.01336 136.031C4.70418 136.031 4.39619 135.951 4.0894 135.792C3.67335 135.576 3.36871 135.273 3.1755 134.885C2.98229 134.497 2.91186 134.042 2.96421 133.519C3.02076 132.999 3.20934 132.43 3.52996 131.812C3.84622 131.203 4.20174 130.729 4.59651 130.389C4.99129 130.05 5.39987 129.849 5.82226 129.785C6.25103 129.72 6.67344 129.795 7.08949 130.011C7.5812 130.266 7.90091 130.621 8.04864 131.077C8.20275 131.53 8.19011 132.017 8.01073 132.537L10.5449 133.853C10.8953 133.085 11.0295 132.328 10.9476 131.581C10.8657 130.834 10.587 130.143 10.1117 129.507C9.63631 128.871 8.97627 128.334 8.13155 127.895C7.15235 127.387 6.19749 127.161 5.26696 127.217C4.33862 127.268 3.48592 127.57 2.70887 128.122C1.9382 128.671 1.2955 129.442 0.780759 130.434C0.272565 131.413 0.0123758 132.377 0.000192102 133.325C-0.00778892 134.276 0.233193 135.148 0.723138 135.941ZM14.5761 142.604L17.5133 132.098L20.3382 132.887L19.8257 134.721L19.9352 134.751C20.309 134.153 20.7682 133.75 21.3127 133.543C21.8584 133.332 22.4255 133.309 23.0137 133.473C23.1596 133.514 23.3144 133.567 23.478 133.633C23.6416 133.698 23.7828 133.764 23.9016 133.832L23.1787 136.418C23.0534 136.338 22.8744 136.249 22.6416 136.149C22.4089 136.05 22.1922 135.972 21.9915 135.916C21.5629 135.796 21.1537 135.783 20.764 135.875C20.3801 135.965 20.0443 136.146 19.7564 136.419C19.4731 136.694 19.2715 137.046 19.1517 137.475L17.49 143.419L14.5761 142.604ZM30.7624 145.529C31.5401 146.037 32.4888 146.328 33.6084 146.402C34.5061 146.462 35.3065 146.378 36.0098 146.149C36.7181 145.916 37.3061 145.566 37.7738 145.099C38.2465 144.628 38.5761 144.061 38.7625 143.4L35.9826 143.03C35.8605 143.297 35.6939 143.518 35.4828 143.694C35.2718 143.87 35.0238 143.996 34.7388 144.072C34.4538 144.147 34.1435 144.174 33.8081 144.152C33.3026 144.118 32.8727 143.983 32.5183 143.746C32.164 143.509 31.8983 143.187 31.7212 142.782C31.5489 142.376 31.4807 141.904 31.5166 141.366L31.517 141.359L38.9296 141.852L38.9848 141.023C39.0465 140.097 38.9703 139.281 38.7564 138.573C38.5428 137.862 38.2174 137.261 37.7802 136.772C37.3478 136.283 36.8273 135.904 36.2187 135.636C35.6153 135.363 34.9545 135.203 34.2364 135.155C33.1687 135.084 32.2222 135.258 31.3971 135.678C30.5766 136.097 29.9209 136.716 29.43 137.532C28.939 138.349 28.6563 139.317 28.5817 140.437C28.5053 141.585 28.6564 142.594 29.035 143.464C29.414 144.329 29.9898 145.018 30.7624 145.529ZM31.6445 139.488C31.6887 139.098 31.8131 138.748 32.0176 138.438C32.2396 138.097 32.5323 137.834 32.8958 137.649C33.2643 137.46 33.6776 137.381 34.1359 137.412C34.5753 137.441 34.9539 137.563 35.2717 137.779C35.5945 137.99 35.8393 138.27 36.0059 138.618C36.1726 138.966 36.2414 139.357 36.2125 139.792L31.6445 139.488ZM49.2575 145.836C48.5703 145.947 47.9387 145.926 47.3628 145.774C46.7861 145.617 46.3031 145.328 45.9139 144.907C45.5287 144.479 45.2788 143.911 45.1645 143.2C45.0682 142.602 45.0972 142.081 45.2514 141.639C45.4057 141.197 45.6522 140.822 45.991 140.513C46.3297 140.204 46.7297 139.948 47.1909 139.745C47.6567 139.54 48.152 139.369 48.6766 139.232C49.2925 139.066 49.7876 138.924 50.1619 138.806C50.5354 138.684 50.7993 138.55 50.9534 138.405C51.1076 138.261 51.1662 138.074 51.1294 137.845L51.1226 137.803C51.0511 137.358 50.8556 137.037 50.536 136.839C50.2211 136.641 49.8088 136.582 49.2993 136.664C48.7617 136.751 48.3531 136.939 48.0736 137.229C47.7934 137.513 47.6304 137.842 47.5847 138.214L44.7859 138.434C44.8208 137.757 45.0056 137.147 45.3402 136.604C45.6741 136.056 46.1452 135.601 46.7536 135.24C47.3659 134.873 48.1022 134.62 48.9623 134.481C49.5607 134.385 50.1446 134.363 50.7141 134.415C51.2883 134.467 51.8118 134.606 52.2846 134.832C52.7621 135.057 53.1619 135.381 53.4842 135.804C53.8057 136.222 54.0179 136.751 54.121 137.392L55.2902 144.656L52.4573 145.112L52.2169 143.619L52.1328 143.632C52.014 143.997 51.8304 144.331 51.5819 144.635C51.3327 144.934 51.0164 145.188 50.6331 145.399C50.2489 145.604 49.7904 145.75 49.2575 145.836ZM49.7812 143.637C50.2206 143.566 50.5947 143.417 50.9034 143.19C51.2114 142.958 51.4372 142.677 51.5807 142.347C51.7242 142.017 51.7655 141.663 51.7045 141.284L51.5206 140.141C51.4369 140.217 51.3173 140.294 51.162 140.372C51.0106 140.444 50.8377 140.517 50.6435 140.592C50.4485 140.661 50.2531 140.729 50.0574 140.794C49.8609 140.854 49.6827 140.909 49.5229 140.959C49.1805 141.067 48.8875 141.198 48.6438 141.352C48.4001 141.507 48.2212 141.691 48.1071 141.906C47.9923 142.117 47.9574 142.362 48.0026 142.642C48.068 143.049 48.2653 143.336 48.5944 143.504C48.9275 143.666 49.3231 143.71 49.7812 143.637ZM58.9062 132.799L63.4755 142.705L66.2229 141.438L63.4801 135.492C63.3116 135.127 63.2357 134.776 63.2527 134.439C63.2676 134.099 63.3608 133.798 63.5322 133.536C63.7058 133.268 63.9453 133.064 64.2506 132.923C64.702 132.715 65.1318 132.691 65.5398 132.853C65.9521 133.012 66.2704 133.334 66.4945 133.82L69.3443 139.998L72.0079 138.77L69.2175 132.72C68.9795 132.204 68.9279 131.725 69.0626 131.282C69.1953 130.835 69.511 130.497 70.0097 130.267C70.4483 130.064 70.8772 130.033 71.2965 130.174C71.7158 130.314 72.0524 130.659 72.3062 131.21L75.1293 137.33L77.8702 136.066L74.7973 129.404C74.3015 128.329 73.6285 127.633 72.7783 127.316C71.9305 126.993 71.0444 127.044 70.12 127.471C69.3934 127.806 68.8428 128.268 68.4684 128.858C68.0962 129.442 67.94 130.064 67.9997 130.725L67.8965 130.772C67.4716 130.269 66.9433 129.96 66.3113 129.845C65.6774 129.726 65.0208 129.823 64.3415 130.136C63.6708 130.445 63.172 130.879 62.8451 131.436C62.5183 131.994 62.3855 132.61 62.4469 133.286L62.3308 133.339L61.5246 131.592L58.9062 132.799Z" fill="black"/>
</svg>

<svg xmlns="http://www.w3.org/2000/svg" fill="none" viewBox="0 0 78 147"><path fill="#000" fill-rule="evenodd" d="M25.637 16V5.09h3.026V16h-3.026Zm1.52-12.315c-.45 0-.836-.15-1.158-.448a1.45 1.45 0 0 1-.476-1.086c0-.417.16-.775.476-1.073a1.63 1.63 0 0 1 1.158-.454c.45 0 .833.151 1.15.454.323.298.484.656.484 1.073 0 .421-.162.783-.483 1.086-.318.298-.701.448-1.151.448Zm8.858 12.528c-1.117 0-2.078-.237-2.883-.71a4.801 4.801 0 0 1-1.847-1.989c-.426-.847-.639-1.823-.639-2.926 0-1.117.215-2.097.646-2.94a4.801 4.801 0 0 1 1.854-1.982c.8-.478 1.752-.717 2.855-.717.952 0 1.785.173 2.5.518A4.18 4.18 0 0 1 40.2 6.923c.416.625.646 1.36.688 2.202h-2.855c-.08-.545-.293-.982-.639-1.314-.34-.336-.788-.504-1.342-.504-.469 0-.879.128-1.229.383-.346.251-.615.618-.81 1.101-.194.483-.29 1.068-.29 1.754 0 .697.094 1.288.283 1.776.194.488.467.86.817 1.115.35.256.76.384 1.229.384.345 0 .656-.071.93-.213.28-.143.51-.348.69-.618.184-.275.304-.604.361-.988h2.855c-.047.834-.274 1.568-.681 2.202a4.118 4.118 0 0 1-1.67 1.477c-.71.355-1.55.533-2.52.533Zm11.781 0c-1.122 0-2.088-.227-2.898-.682a4.669 4.669 0 0 1-1.86-1.946c-.436-.843-.654-1.84-.654-2.99 0-1.122.218-2.107.654-2.954a4.83 4.83 0 0 1 1.84-1.982c.795-.473 1.727-.71 2.797-.71.72 0 1.39.116 2.01.348.625.227 1.17.57 1.634 1.03.469.459.833 1.037 1.094 1.733.26.69.39 1.5.39 2.429v.83h-7.429v.008c0 .54.1 1.006.299 1.399.203.393.49.696.859.909.37.213.807.32 1.314.32.336 0 .644-.048.923-.143.28-.094.519-.236.718-.426.198-.189.35-.421.454-.696l2.798.185a3.821 3.821 0 0 1-.873 1.761c-.436.498-1 .886-1.69 1.165-.687.275-1.48.412-2.38.412Zm-2.116-7.84c-.184.322-.285.68-.303 1.072h4.578c0-.436-.094-.822-.284-1.158a2.035 2.035 0 0 0-.788-.788 2.248 2.248 0 0 0-1.158-.292c-.46 0-.866.107-1.221.32-.35.208-.625.49-.824.845Zm9.79 42.017c3.162 0 6.157-.547 8.834-1.525V94.17a5 5 0 0 1-5 5H43.693v22.412a4.416 4.416 0 1 1-8.834 0V99.171H16.304a5 5 0 0 1-5-5V31a5 5 0 0 1 5-5h21.795c-2.05 2.464-3.24 5.393-3.24 8.537 0 8.755 9.228 15.853 20.611 15.853ZM.723 135.941c.496.791 1.24 1.444 2.232 1.959.862.447 1.69.676 2.484.688a4.123 4.123 0 0 0 2.161-.542c.654-.376 1.194-.922 1.62-1.64l-2.534-1.315a2.37 2.37 0 0 1-.777.709 1.79 1.79 0 0 1-.896.231c-.309 0-.617-.08-.924-.239a2.032 2.032 0 0 1-.914-.907c-.193-.388-.263-.843-.21-1.366.056-.52.244-1.089.565-1.707.316-.609.672-1.083 1.067-1.423.394-.339.803-.54 1.225-.604.429-.065.851.01 1.267.226.492.255.812.61.96 1.066.154.453.141.94-.038 1.46l2.534 1.316c.35-.768.485-1.525.403-2.272a4.177 4.177 0 0 0-.836-2.074c-.476-.636-1.136-1.173-1.98-1.612-.98-.508-1.935-.734-2.865-.678a4.793 4.793 0 0 0-2.558.905c-.77.549-1.413 1.32-1.928 2.312-.508.979-.769 1.943-.78 2.891a4.801 4.801 0 0 0 .722 2.616Zm13.853 6.663 2.937-10.506 2.825.789-.512 1.834.11.03c.373-.598.832-1.001 1.377-1.208a2.637 2.637 0 0 1 1.7-.07 4.496 4.496 0 0 1 .889.359l-.723 2.586a3.913 3.913 0 0 0-.537-.269 5.349 5.349 0 0 0-.65-.233 2.425 2.425 0 0 0-1.228-.041c-.384.09-.72.271-1.008.544a2.299 2.299 0 0 0-.604 1.056l-1.662 5.944-2.914-.815Zm16.186 2.925c.778.508 1.727.799 2.846.873.898.06 1.699-.024 2.402-.253.708-.233 1.296-.583 1.764-1.05a3.82 3.82 0 0 0 .989-1.699l-2.78-.37a1.853 1.853 0 0 1-.5.664 1.915 1.915 0 0 1-.744.378 2.897 2.897 0 0 1-.93.08c-.506-.034-.936-.169-1.29-.406a2.186 2.186 0 0 1-.798-.964c-.172-.406-.24-.878-.204-1.416v-.007l7.413.493.055-.829c.062-.926-.015-1.742-.229-2.45-.213-.711-.539-1.312-.976-1.801a4.455 4.455 0 0 0-1.561-1.136 5.688 5.688 0 0 0-1.983-.481c-1.067-.071-2.014.103-2.839.523a4.826 4.826 0 0 0-1.967 1.854c-.491.817-.774 1.785-.848 2.905-.077 1.148.074 2.157.453 3.027a4.666 4.666 0 0 0 1.727 2.065Zm.883-6.041c.044-.39.168-.74.373-1.05.222-.341.514-.604.878-.789a2.323 2.323 0 0 1 1.24-.237c.44.029.818.151 1.136.367.322.211.567.491.734.839.167.348.235.739.206 1.174l-4.568-.304Zm17.613 6.348c-.688.111-1.32.09-1.895-.062a3.004 3.004 0 0 1-1.45-.867c-.384-.428-.634-.996-.748-1.707-.097-.598-.068-1.119.086-1.561.155-.442.401-.817.74-1.126a4.382 4.382 0 0 1 1.2-.768 9.88 9.88 0 0 1 1.486-.513 38.335 38.335 0 0 0 1.485-.426c.373-.122.637-.256.791-.401.155-.144.213-.331.176-.56l-.006-.042c-.072-.445-.267-.766-.587-.964-.315-.198-.727-.257-1.237-.175-.537.087-.946.275-1.225.565-.28.284-.444.613-.49.985l-2.798.22c.035-.677.22-1.287.554-1.83.334-.548.805-1.003 1.414-1.364.612-.367 1.348-.62 2.208-.759a7.004 7.004 0 0 1 1.752-.066 4.566 4.566 0 0 1 1.57.417c.478.225.878.549 1.2.972.322.418.534.947.637 1.588l1.17 7.264-2.834.456-.24-1.493-.084.013a3.078 3.078 0 0 1-.551 1.003c-.25.299-.566.553-.949.764-.384.205-.843.351-1.376.437Zm.523-2.199c.44-.071.814-.22 1.122-.447a2.09 2.09 0 0 0 .678-.843c.143-.33.184-.684.123-1.063l-.183-1.143a1.623 1.623 0 0 1-.359.231 7.558 7.558 0 0 1-.518.22c-.195.069-.39.137-.587.202l-.534.165a3.76 3.76 0 0 0-.88.393 1.493 1.493 0 0 0-.536.554c-.115.211-.15.456-.104.736.065.407.262.694.591.862.334.162.73.206 1.187.133Zm9.125-10.838 4.57 9.906 2.747-1.267-2.743-5.946a2.234 2.234 0 0 1-.227-1.053c.015-.34.108-.641.28-.903.173-.268.412-.472.718-.613.451-.208.88-.232 1.289-.07.412.159.73.481.954.967l2.85 6.178 2.664-1.228-2.79-6.05c-.239-.516-.29-.995-.155-1.438.132-.447.448-.785.947-1.015.438-.203.867-.234 1.286-.093.42.14.756.485 1.01 1.036l2.823 6.12 2.741-1.264-3.073-6.662c-.495-1.075-1.168-1.771-2.019-2.088-.848-.323-1.734-.272-2.658.155-.727.335-1.277.797-1.652 1.387a2.904 2.904 0 0 0-.468 1.867l-.103.047a2.64 2.64 0 0 0-1.586-.927c-.634-.119-1.29-.022-1.97.291-.67.309-1.169.743-1.496 1.3a3.028 3.028 0 0 0-.398 1.85l-.116.053-.806-1.747-2.619 1.207Z" clip-rule="evenodd"/></svg>
